packages/icons/src/envelope-closed.svg

<svg width="15" height="15" viewBox="0 0 15 15" fill="none" xmlns="http://www.w3.org/2000/svg">
  <path
    fill-rule="evenodd"
    clip-rule="evenodd"
    d="M1 2C0.447715 2 0 2.44772 0 3V12C0 12.5523 0.447715 13 1 13H14C14.5523 13 15 12.5523 15 12V3C15 2.44772 14.5523 2 14 2H1ZM1 3L14 3V3.92494C13.9174 3.92486 13.8338 3.94751 13.7589 3.99505L7.5 7.96703L1.24112 3.99505C1.16621 3.94751 1.0826 3.92486 1 3.92494V3ZM1 4.90797V12H14V4.90797L7.74112 8.87995C7.59394 8.97335 7.40606 8.97335 7.25888 8.87995L1 4.90797Z"
    fill="currentColor"
  />
</svg>

<svg xmlns="http://www.w3.org/2000/svg" width="15" height="15" fill="none"><path fill="currentColor" fill-rule="evenodd" d="M1 2a1 1 0 0 0-1 1v9a1 1 0 0 0 1 1h13a1 1 0 0 0 1-1V3a1 1 0 0 0-1-1zm0 1h13v.925a.45.45 0 0 0-.241.07L7.5 7.967 1.241 3.995A.45.45 0 0 0 1 3.925zm0 1.908V12h13V4.908L7.741 8.88a.45.45 0 0 1-.482 0z" clip-rule="evenodd"/></svg>
